X: 3150
T: CAULD KAIL
Q: "Reel."
R: Reel.
%R: reel
B: James Kerr "Merry Melodies" v.3 p.18 #150
Z: 2016 John Chambers <jc:trillian.mit.edu>
M: C
L: 1/8
K: Am
|:\
   A2a2  gede | c>A A/A/A (Ac)BA |\
[1 G2g2  decd | B>G G/G/G (GA)BG :|\
[2 G2g2  edcB | c2A2A2 ||
|: e2 |\
   a3b   aece | AAce a2(e^f) |\
[1 g3a   gdBd | GGBd g2 :|\
[2 gag^f edcB | c2A2A2 E2 |]

%%sep 1 1 500
%%sep 1 1 500

